X:1
T: Farewell to the Creeks
R: jig
C: Pipe Major J. Robertson
C: Scots Guards, arr. by T. Traub 6-27-03
M:6/8
K: A
L: 1/8
|: a |\
"A"e2 c c>Bc | "D"d>ef "A"e2 d | "A"c2 e "F#m"A>ce | "Bm"e>dc "E"B2 a |\
"A"e2 c c>Bc | "D"d>ef "A"e2 d | "A"c2 e "D"e>dc | "E"B3 "A"A2 :|
|: f |\
"A"e>ce "D"f<ag | "D"f>df "A"e>cA | "A"c2 c c<ec | "Bm"d>cd "E"B2 f |\
"A"e>ce "D"f<ag | "D"f>df "A"e>cA | "A"c2 e "D"e>dc | "E"B3 "A"A2 :|
|: a |\
"A"c3 "D"d2 f | "A"c<ec c>BA | "D"d2 f "A"c2 e | "Bm"e>dc "E"B2 a |\
"A"c3 "D"d2 f | "A"c<ec c>BA | "A"c2 e "D"e>dc | "E"B3 "A"A2 :|
|: e |\
"A"a2 e "D"f2 a | "A"e2 f e>cA | "D"d2 f "A"c2 e | "Bm"e>dc "E"B2 e |\
"A"a2 e "D"f2 a | "A"e2 f e>cA | "A"c2 e "Bm"e>dc | "E"B3 "A"A2 :|
